public/img/message.svg

<svg width="40" height="40" viewBox="0 0 40 40" fill="none" xmlns="http://www.w3.org/2000/svg">
<path d="M13.4594 3.72949C6.32431 3.72949 0.540527 8.10787 0.540527 13.5133C0.540527 16.4322 2.2162 19.0808 4.91891 20.8646V26.7565L10.7567 23.1349C11.6216 23.2971 12.5405 23.3511 13.4594 23.3511C20.5405 23.3511 26.3243 18.9187 26.3243 13.5133C26.3243 8.10787 20.5405 3.72949 13.4594 3.72949Z" fill="white"/>
<path d="M34.8056 29.961L34.581 30.1092V30.3783V35.3716L29.5068 32.2237L29.3418 32.1214L29.1511 32.1571C28.3274 32.3116 27.4419 32.3648 26.5405 32.3648C23.0717 32.3648 19.9504 31.2999 17.7072 29.6013C15.4651 27.9035 14.1225 25.5947 14.1216 23.0835C14.1476 20.5414 15.5062 18.2172 17.7485 16.5128C19.992 14.8075 23.0997 13.7432 26.5405 13.7432C30.0093 13.7432 33.1306 14.808 35.3738 16.5066C37.6166 18.205 38.9594 20.5148 38.9594 23.0269C38.9594 25.7413 37.4016 28.2476 34.8056 29.961Z" fill="white" stroke="url(#paint0_linear_128_1010)"/>
<path d="M33.5139 24.6488C34.3796 24.6488 35.0814 23.947 35.0814 23.0812C35.0814 22.2155 34.3796 21.5137 33.5139 21.5137C32.6481 21.5137 31.9463 22.2155 31.9463 23.0812C31.9463 23.947 32.6481 24.6488 33.5139 24.6488Z" fill="#076A29"/>
<path d="M26.5402 24.6488C27.406 24.6488 28.1078 23.947 28.1078 23.0812C28.1078 22.2155 27.406 21.5137 26.5402 21.5137C25.6745 21.5137 24.9727 22.2155 24.9727 23.0812C24.9727 23.947 25.6745 24.6488 26.5402 24.6488Z" fill="#076A29"/>
<path d="M19.6215 24.6488C20.4873 24.6488 21.1891 23.947 21.1891 23.0812C21.1891 22.2155 20.4873 21.5137 19.6215 21.5137C18.7558 21.5137 18.054 22.2155 18.054 23.0812C18.054 23.947 18.7558 24.6488 19.6215 24.6488Z" fill="#076A29"/>
<defs>
<linearGradient id="paint0_linear_128_1010" x1="26.5" y1="13.5" x2="32" y2="38" gradientUnits="userSpaceOnUse">
<stop stop-color="#0C8C33"/>
<stop offset="1" stop-color="#056327"/>
</linearGradient>
</defs>
</svg>

<svg width="40" height="40" fill="none" xmlns="http://www.w3.org/2000/svg"><path d="M13.46 3.73C6.323 3.73.54 8.107.54 13.512c0 2.92 1.676 5.568 4.379 7.352v5.892l5.838-3.622c.865.162 1.784.216 2.702.216 7.082 0 12.865-4.432 12.865-9.838 0-5.405-5.784-9.784-12.865-9.784Z" fill="#fff"/><path d="m34.806 29.961-.225.148v5.263l-5.074-3.148-.165-.103-.19.036c-.825.155-1.71.208-2.611.208-3.47 0-6.59-1.065-8.834-2.764-2.242-1.697-3.585-4.006-3.585-6.517.026-2.543 1.384-4.867 3.627-6.571 2.243-1.706 5.35-2.77 8.792-2.77 3.468 0 6.59 1.065 8.833 2.764 2.243 1.698 3.585 4.008 3.585 6.52 0 2.714-1.557 5.22-4.153 6.934Z" fill="#fff" stroke="url(#a)"/><path d="M33.514 24.649a1.568 1.568 0 1 0 0-3.135 1.568 1.568 0 0 0 0 3.135ZM26.54 24.649a1.568 1.568 0 1 0 0-3.135 1.568 1.568 0 0 0 0 3.135ZM19.622 24.649a1.568 1.568 0 1 0 0-3.135 1.568 1.568 0 0 0 0 3.135Z" fill="#076A29"/><defs><linearGradient id="a" x1="26.5" y1="13.5" x2="32" y2="38" gradientUnits="userSpaceOnUse"><stop stop-color="#0C8C33"/><stop offset="1" stop-color="#056327"/></linearGradient></defs></svg>
